X: 1
T: Hills Of Coore, The
M: 4/4
L: 1/8
R: hornpipe
K: Ador
|: G | EAAB AGED | cdef ged2 | (3efg af gedB | BAAG AGED |
EAAB AGED | cdef ged2 | (3efg af gedB | DEGB A2A :|
|: a | {b}a^gab {b}a^gab | {b}=g2gf ged2 | (3efg af gedB | BAAG AGED |
EAAB AGED | cdef ged2 | (3efg af gedB | DEGB A2A :|
